X: 1
T: the Quandary
C: Paul S. Cranford
R: reel
Z: 2014 John Chambers <jc:trillian.mit.edu>
S: page in Concord Slow Scottish Session collection
M: C|
L: 1/8
K: D
AG !segno!|\
(3(FED) AD dDAd | ABdf e2de | fdef dBAB | ABdf e2 :|
dc |\
dBfB bBfB | dBfB Tg2fg | afTge fedB ABdf e2dc |
dBfB bBfB | dBfB Tg2fg | abge TfedB | ABdf ecd"_D.S."A |]
